icons/insert-column-left.svg

<svg viewBox="0 0 24 24" fill="currentColor" xmlns="http://www.w3.org/2000/svg">
    <path d="M20 3C20.5523 3 21 3.44772 21 4V20C21 20.5523 20.5523 21 20 21H14C13.4477 21 13 20.5523 13 20V4C13 3.44772 13.4477 3 14 3H20ZM19 5H15V19H19V5ZM6 7C8.76142 7 11 9.23858 11 12C11 14.7614 8.76142 17 6 17C3.23858 17 1 14.7614 1 12C1 9.23858 3.23858 7 6 7ZM7 9H5V10.999L3 11V13L5 12.999V15H7V12.999L9 13V11L7 10.999V9Z"/>
</svg>

<svg xmlns="http://www.w3.org/2000/svg" viewBox="0 0 24 24">
    <g>
        <path fill="none" d="M0 0H24V24H0z"/>
        <path d="M20 3c.552 0 1 .448 1 1v16c0 .552-.448 1-1 1h-6c-.552 0-1-.448-1-1V4c0-.552.448-1 1-1h6zm-1 2h-4v14h4V5zM6 7c2.761 0 5 2.239 5 5s-2.239 5-5 5-5-2.239-5-5 2.239-5 5-5zm1 2H5v1.999L3 11v2l2-.001V15h2v-2.001L9 13v-2l-2-.001V9z"/>
    </g>
</svg>
